X:8613
%17900
T:Turkey in the Straw
M:4/4
L:1/4
C:Trad
R:Reel
K:Cmaj
E/2D/2| C/2B,/2C/2D/2 CE,/2F,/2| G,/2A,/2G,/2E,/2 G,C/2D/2| EE E/2D/2C/2D/2|
ED DE/2D/2|
C/2B,/2C/2D/2 CE,/2F,/2| G,/2A,/2G,/2E,/2 G,C/2D/2| E/2GA/2 G/2E/2C/2D/2| ED

%Warning : whitespace in field declaration

%Warning : Potentially ambiguous line - either a :| repeat or a field command -- cannot distinguish.
C:|
|:D| E/2GE/2 GG| E/2GE/2 G2| F/2AF/2 AA| F/2AF/2 AB| cc GG| E/2GE/2 DC

%Error : stray / not in grace sequence

%Error : Unrecognized character: 2
D/2
%Error : Bar 16 is 9/8 not 4/4
| E/2GA/2 G/2E/2C/2D/2| ED C:|


